!!!!SEGMENT: pl-wtm--r-286-m_moniuszko-stanislaw--o-wladco-swiata.krn
!!!cenid: 18xx:1665
!!!COM: Moniuszko, Stanisław
!!!COM-rismid: pe30008351
!!!CDT: 1819/05/05-1872/06/04
!!!CNT: Polish
!!!OTL: O władco świata
!!!PDT: 1862
!!!AGN: Secular
!!!SMS-siglum: PL-Wtm
!!!SMS-shelfmark: R 286/M
!!!SMS-shelfwork: W
!!!SMS-variant:
!!!SMS-altvar:
!!!NIFC-rismid: 1001093338
!!!URL-scan: http://repozytorium.nifc.pl/skany/pl-wtm-nut--r286m
!!!ONB-nifc:
!!!key:
**kern	**kern	**dynam	**kern	**text	**dynam
*part3	*part2	*part2	*part1	*part1	*part1
*staff3	*staff2	*	*staff1	*staff1	*
*Iorgan	*Iorgan	*	*Ialto	*	*
*I"Organy	*I"Organy	*	*I"Alt	*	*
*I'org	*I'org	*	*I'A	*	*
*clefF4	*clefG2	*	*clefG2	*	*
*k[b-e-a-d-g-]	*k[b-e-a-d-g-]	*	*k[b-e-a-d-g-]	*	*
*b-:	*b-:	*	*b-:	*	*
*M4/4	*M4/4	*	*M4/4	*	*
*met(c)	*met(c)	*	*met(c)	*	*
=1	=1	=1	=1	=1	=1
*^	*^	*	*	*	*
*	*^	*	*	*	*	*	*
!	!	!	!LO:TX:t=P:problem:8,4\right:global	!	!	!LO:TX:a:t=P:problem:nazwy głosów i instrumentów zostały zaczerpnięte ze strony tytułowej: "Śpiew | na głos Altowy, z towarzyszeniem Organów."	!	!
!	!	!	!LO:TX:i:a:t=posit&colon;	!	!LO:DY:b:rj	!LO:TX:t=P:problem:8,4\right:global	!	!
!	!	!	!	!	!	!LO:TX:i:a:t=[Len]to	!	!
!	!	!	!	!	!	!LO:TX:a:t=P:problem:tekst wpisany czerwonym atramentem	!	!
[>1F	[<1BB-	1rFF	2b-/	[<1d-	pp	2r	.	.
!	!	!	!	!	!	!LO:TX:i:a:t=sempre ad libit&colon;	!	!
!	!	!	!	!	!	!LO:TX:t=P:problem:cały tekst fioletowym atramentem	!	!
.	.	.	2f/	.	.	4b-\	O	.
.	.	.	.	.	.	8an\	Wład-	.
.	.	.	.	.	.	8b-\	-co	.
=2	=2	=2	=2	=2	=2	=2	=2	=2
*	*	*	*	*2\right	*	*	*	*
2F/]	1BB-]	1rFF	[>2b-/	2d-\]	.	4.dd-\	Świa-	.
.	.	.	.	.	.	8cc\	-ta!	.
!	!	!	!	!	!	!LO:TX:i:a:t=posit&colon; pp. ........ 8 pa\nManual&colon; un poco piu f. 4.8. ud.\nped. pp. .......... 8. 6. ped.	!	!
2G-/	.	.	8b-/L]	2e-\	.	8b-\	wie-	.
.	.	.	8an/J	.	.	8an\	-ku-	.
!	!	!	!LO:TX:a:t=P:problem:brak zakończenia ligatury	!	!	!	!	!
.	.	.	[>4b-/	.	.	8.b-\	-i-	.
.	.	.	.	.	.	16g-/	-sty	.
!!LO:LB:g=original
=3	=3	=3	=3	=3	=3	=3	=3	=3
2F/	1BB-	1rFF	(>2b-/]	[<1d-	.	4f/	Bo-	.
.	.	.	.	.	.	8f/	-że!	.
.	.	.	.	.	.	8r	.	.
(>4D-/	.	.	4f/	.	.	4f/	Ty	.
8E-/L	.	.	8g-/L	.	.	8g-/	co	.
8En/J)	.	.	8gn/J	.	.	8gn/	nas	.
=4	=4	=4	=4	=4	=4	=4	=4	=4
2F/	1AA-	1rFF	[>1a-)	2d-\]	.	4a-/	wszy-	.
.	.	.	.	.	.	4b-/	-stkich	.
2G-/	.	.	.	2e- 2c\	.	8cc\	ży-	.
.	.	.	.	.	.	8cc\	-cie	.
.	.	.	.	.	.	8b-\	masz	.
.	.	.	.	.	.	8a-\	w swej	.
*	*v	*v	*	*	*	*	*	*
=5	=5	=5	=5	=5	=5	=5	=5
*2\right	*	*	*	*	*	*	*
2F 2D-\	1rFF	(>4a-/]	N[2d-\	.	2dd-\	mo-	.
.	.	[>4dd-/)	.	.	.	.	.
2B- 2G-\	.	2dd-] 2g- 2d-/N]	2rFyy	.	8dd-\	-cy!	.
.	.	.	.	.	8dd-\	do	.
.	.	.	.	.	8cc\	Cie-	.
.	.	.	.	.	8b-\	-bie	.
!!LO:LB:g=original
=6	=6	=6	=6	=6	=6	=6	=6
*	*^	*	*	*	*	*	*
2ryy	2e- [>2A- 2E-\	1rGG	2cc 2g- [<2c/	2ryy	.	4.cc\	dzi-	.
.	.	.	.	.	.	8cc\	-siaj	.
!	!	!	!	!LO:TX:t=P:problem:4\left	!	!	!	!
4e-/	2A-] 2F\	.	[>2a- [>2f/	4c\]	.	8cc\	wzno-	.
.	.	.	.	.	.	8cc\	-sim	.
[>4d-/	.	.	.	4d-\	.	8.dd-\	myśl	.
.	.	.	.	.	.	16an/	w po-	.
*	*v	*v	*	*	*	*	*	*
*	*	*v	*v	*	*	*	*
=7	=7	=7	=7	=7	=7	=7
2d-_> 2F 2D-\	1rGG	[>2b- 2a-] 2f] [>2B-/	.	4cc\	-ko-	.
.	.	.	.	4b-\	-rze,	.
2d-] [<2G- 2E-\	.	2b-] 2g- 2B-/]	.	8r	.	.
!	!	!	!	!LO:TX:a:t=P:problem:tekst poprawiony przez głównego skryptora (t. 7-9)	!	!
.	.	.	.	8b-\	do	.
.	.	.	.	8cc\	Cie-	.
.	.	.	.	8dd-\	-bie	.
=8	=8	=8	=8	=8	=8	=8
*	*	*^	*	*	*	*
2An\ [<\2G-] 2C\	1rGG	(>2an/	[<1e-	.	4.ee-\	dzi-	.
.	.	.	.	.	8e-/	-siaj	.
2B-\ 2G-\] 2BB-\	.	4..b-/	.	.	8e-/	wzno-	.
.	.	.	.	.	8e-/	-sim	.
.	.	.	.	.	8.f/	myśl	.
.	.	16g-/)	.	.	16g-/	w po-	.
!!LO:LB:g=original
=9	=9	=9	=9	=9	=9	=9	=9
*	*^	*	*	*	*	*	*
(>4G-/	2AAn\	1rFF	(>4g-/	2e-] 2c\	.	4g-/	-ko-	.
[>2.F/)	.	.	2f/)	.	.	8f/	-rze	.
.	.	.	.	.	.	8r	.	.
.	2BB-\	.	.	[<2d-\	.	8r	.	.
!	!	!	!	!	!	!	!	!LO:DY:a:rj
.	.	.	.	.	.	8f/	i	p
.	.	.	4f/	.	.	8.dd-\	pro-	.
.	.	.	.	.	.	16cc\	-sim	.
*	*v	*v	*	*	*	*	*	*
=10	=10	=10	=10	=10	=10	=10	=10
2F/_>	1rFF	(>2b- 2d-/]	2ryy	.	4.b-\	byś	.
.	.	.	.	.	8cc\	nam	.
2F] 2FF/	.	4cc/	2e- 2c\	.	8b-\	do-	.
.	.	.	.	.	8an\	-dał	.
.	.	4f/)	.	.	8f/	Twej	.
.	.	.	.	.	8a/	po-	.
=11	=11	=11	=11	=11	=11	=11	=11
*	*^	*	*	*	*	*	*
(>(<2F/	2BB-\	1rFF	2f/	2d-\	.	4.b-\	-mo-	.
!	!	!	!LO:TX:i:b:t=un poco piu f.	!	!	!	!	!
.	.	.	.	.	.	8b-\	-cy.	.
!	!	!	!LO:TX:i:a:t=manuale.	!	!	!	!	!
2B- 2D-/))	2rGG	.	8r	2rAyy	.	2r	.	.
.	.	.	(<8f/L	.	.	.	.	.
.	.	.	8ff/	.	.	.	.	.
.	.	.	8ee-/J)	.	.	.	.	.
!!LO:PB:g=original
=12	=12	=12	=12	=12	=12	=12	=12	=12
!LO:TX:i:b:t=ped&colon;	!	!	!LO:TX:i:b:t=manuale.	!	!	!	!	!
2F/	[<1BB-	1ryy	(>4dd-/	2d-\	.	1r	.	.
.	.	.	8cc/L	.	.	.	.	.
.	.	.	8b-/J)	.	.	.	.	.
2G-/	.	.	(>8b-/L	2e-\	.	.	.	.
.	.	.	8an/	.	.	.	.	.
.	.	.	8b-/	.	.	.	.	.
.	.	.	8cc/J)	.	.	.	.	.
=13	=13	=13	=13	=13	=13	=13	=13	=13
*	*	*	*	*2\left	*	*	*	*
2B- 2F/	2BB-\]	1ryy	[>2f/	2d-\	.	1r	.	.
2B--/	2G-\	.	(>8f/L]	2c\	.	.	.	.
.	.	.	8e-/	.	.	.	.	.
.	.	.	8f/	.	.	.	.	.
.	.	.	8g-/J	.	.	.	.	.
=14	=14	=14	=14	=14	=14	=14	=14	=14
4A-/	(<4F\	1ryy	4a-/	4d-\	.	1r	.	.
4B-/	4G-\	.	8d-/L	4d-\	.	.	.	.
.	.	.	8e-/J	.	.	.	.	.
4A-/	4D-\	.	4f/)	4d-\	.	.	.	.
4An/	4F\	.	4f/	4c\	.	.	.	.
*	*v	*v	*	*	*	*	*	*
*	*	*v	*v	*	*	*	*
=15	=15	=15	=15	=15	=15	=15
[<2BB-\)	1ryy	[>2f [<2d- [>2B-</	.	2r	.	.
!LO:TX:b:t=P:problem:8\right	!	!LO:TX:i:a:t=posit&colon;	!	!	!	!
8BB-\]	.	2f] 2d-] 2B-</]	.	4b-\	Wej-	.
8r	.	.	.	.	.	.
4r	.	.	.	8an\	-rzyj	.
.	.	.	.	8b-\	li-	.
=16	=16	=16	=16	=16	=16	=16
*	*^	*^	*	*	*	*
*	*	*	*	*2\right	*	*	*	*
2F/	[<1BB-	1rFF	[>2b-/	2d-\	.	4dd-\	-to-	.
.	.	.	.	.	.	8cc\	-śnie	.
.	.	.	.	.	.	8b-\	na	.
2G-/	.	.	8b-/L]	2e-\	.	8b-\L	na-	.
.	.	.	8an/J	.	.	8an\J	.	.
!	!	!	!LO:TX:a:t=P:problem:brak zakończenia ligatury	!	!	!	!	!
.	.	.	[>4b-/	.	.	8.b-\	-sze	.
.	.	.	.	.	.	16g-/	cier-	.
!!LO:LB:g=original
=17	=17	=17	=17	=17	=17	=17	=17	=17
2F/	1BB-]	1rFF	(>2b-/]	1d-	.	4f/	-pie-	.
.	.	.	.	.	.	8f/	-nia,	.
.	.	.	.	.	.	8r	.	.
(>4D-/	.	.	4f/	.	.	4f/	do-	.
8E-/L	.	.	8g-/L	.	.	8g-/	-daj	.
8En/J	.	.	8gn/J)	.	.	8gn/	nam	.
=18	=18	=18	=18	=18	=18	=18	=18	=18
2F/)	1AA-	1rFF	[>1a-	2d-\	.	4.a-/	męz-	.
.	.	.	.	.	.	8b-/	-twa	.
2G-/	.	.	.	2e- 2c\	.	8cc\	byś-	.
.	.	.	.	.	.	8cc\	-my	.
.	.	.	.	.	.	8b-\	znie-	.
.	.	.	.	.	.	8a-\	-śli	.
=19	=19	=19	=19	=19	=19	=19	=19	=19
2F/	2D-\	1rFF	(>4a-/]	2d-\	.	2dd-\	sta-	.
.	.	.	[>4dd-/)	.	.	.	.	.
2B-/	2G-\	.	2dd-] [>2g- 2d-/	2rcyy	.	8dd-\	-le	.
.	.	.	.	.	.	8dd-\	nie-	.
.	.	.	.	.	.	8cc\	-do-	.
.	.	.	.	.	.	8b-\	-lę	.
=20	=20	=20	=20	=20	=20	=20	=20	=20
2ryy	N[>2e- [>2A- 2E-\	1rFF	2cc 2g-] [<2c/	2rAyy	.	4.cc\	na-	.
.	.	.	.	.	.	8cc\	-szą	.
!	!	!	!LO:TX:t=P:problem:obie ligatury kończą się skierowane w dół	!	!	!	!	!
4e-/N]	2A-] 2F\	.	[>2a- [>2f/	4c\]	.	8cc\	sro-	.
.	.	.	.	.	.	8cc\	-gość	.
!	!	!	!	!LO:TX:t=P:problem:4\left	!	!	!	!
4d-/	.	.	.	4d-\	.	8.dd-\	prze-	.
.	.	.	.	.	.	16an/	-zna-	.
*	*v	*v	*	*	*	*	*	*
*	*	*v	*v	*	*	*	*
!!LO:LB:g=original
=21	=21	=21	=21	=21	=21	=21
[>2d- 2F 2D-\	1rFF	[>2b- 2a-] 2f] [<2B-/	.	4cc\	-cze-	.
.	.	.	.	4b-\	-nia,	.
2d-] [<2G- 2E-\	.	2b-] 2g- 2B-/]	.	8r	.	.
!	!	!	!	!	!	!LO:HP:a
!	!	!	!	!LO:TX:a:t=P:problem:tekst poprawiony przez głównego skryptora (t. 21-23)	!	!
.	.	.	.	8b-\	nie-	<
.	.	.	.	8cc\	-do-	.
.	.	.	.	8dd-\	-lę	[[
=22	=22	=22	=22	=22	=22	=22
*	*	*^	*	*	*	*
!	!	!	!	!	!	!	!LO:HP:a
2An 2G-_< 2C\	1rFF	(>2an/	[<1e-	.	4.ee-\	na-	>
.	.	.	.	.	8e-/	-szą,	]
2B- 2G-_ 2BB-\	.	4..b-/	.	.	8e-/	sro-	.
.	.	.	.	.	8e-/	-gość	.
.	.	.	.	.	8.f/	prze-	.
.	.	16g-/)	.	.	16g-/	-zna-	.
=23	=23	=23	=23	=23	=23	=23	=23
*	*^	*	*	*	*	*	*
(<4G-/]	2AAn\	1rFF	(>4g-X/	2e-] 2c\	.	4g-/	-cze-	.
[>2.F/)	.	.	2f/)	.	.	8f/	-nia,	.
.	.	.	.	.	.	8r	.	.
.	2BB-\	.	.	[<2d-\	.	8r	.	.
!	!	!	!	!	!	!	!	!LO:DY:a
.	.	.	.	.	.	8f/	i	p
.	.	.	4f/	.	.	8.dd-\	ży-	.
.	.	.	.	.	.	16cc\	-cia	.
=24	=24	=24	=24	=24	=24	=24	=24	=24
1F]	1FF	1rFF	(>2b-/	2d-\]	.	4.b-\	te-	.
.	.	.	.	.	.	8cc\	-go	.
.	.	.	4cc/	2e- 2c\	.	8b-\	prze-	.
.	.	.	.	.	.	8an\	-ciw-	.
.	.	.	4f/)	.	.	8.f/	-no-	.
.	.	.	.	.	.	16a/	-ści	.
*	*v	*v	*	*	*	*	*	*
!!LO:LB:g=original
=25	=25	=25	=25	=25	=25	=25	=25
(>2F (<2BB-/	1rFF	2f/	2d-\	.	4.b-\	fa-	.
!	!	!LO:TX:i:a:t=man&colon;	!	!	!	!	!
.	.	.	.	.	8b-\	-le.	.
2B- 2D-/))	.	8r	2rAyy	.	2r	.	.
.	.	(>8f/L	.	.	.	.	.
!LO:TX:i:a:t=man&colon;	!	!	!	!	!	!	!
!LO:TX:i:b:t=ped.	!	!	!	!	!	!	!
.	.	8ff/	.	.	.	.	.
.	.	8ee-/J	.	.	.	.	.
=26	=26	=26	=26	=26	=26	=26	=26
2F/	1BB-	4dd-/	2d-\	.	1r	.	.
.	.	8cc/L	.	.	.	.	.
.	.	8b-/J)	.	.	.	.	.
2G-/	.	(>8b-/L	2e-\	.	.	.	.
.	.	8an/	.	.	.	.	.
.	.	8b-/	.	.	.	.	.
.	.	8cc/J)	.	.	.	.	.
=27	=27	=27	=27	=27	=27	=27	=27
*	*	*	*	*	*	*	*
2B-/ 2F/	2BB-\	[>2f/	2d-\	.	1r	.	.
2B--/	(<2G-\	8f/L]	2c\	.	.	.	.
.	.	(>8e-/	.	.	.	.	.
.	.	8f/	.	.	.	.	.
.	.	8g-/J	.	.	.	.	.
=28	=28	=28	=28	=28	=28	=28	=28
4A-/ 4F	4F\	4a-/	4d-\	.	1r	.	.
4B-/ 4G-	4G-\	8d-/L	4d-\	.	.	.	.
.	.	8e-/J	.	.	.	.	.
4A-/ 4D-	4D-\	4f/)	4d-\	.	.	.	.
4An/ 4F	4F\	4f/	4c\	.	.	.	.
*	*	*v	*v	*	*	*	*
=29	=29	=29	=29	=29	=29	=29
[>2BB-/)	[>2BB-\	[>2f [>2d- [>2B-</	.	2r	.	.
!	!	!LO:TX:i:a:t=posit&colon;	!	!	!	!
8BB-/]	8BB-\]	2f] 2d-] 2B-</]	.	4b-\	A	.
8r	8ryy	.	.	.	.	.
4r	4ryy	.	.	8f/	gdy	.
.	.	.	.	8b-\	przy	.
!!LO:PB:g=original
=30	=30	=30	=30	=30	=30	=30
*	*^	*^	*	*	*	*
2F/	1BB-	1rFF	[>2b-/	2d-\	.	4dd-\	koń-	.
.	.	.	.	.	.	8.cc\	-cu	.
.	.	.	.	.	.	16b-\	ży-	.
2G-/	.	.	8b-/L]	2e-\	.	8b-\L	-wo-	.
.	.	.	8an/J	.	.	8an\J	.	.
.	.	.	[>4b-/	.	.	8.b-\	-ta	.
.	.	.	.	.	.	16g-/	na-	.
=31	=31	=31	=31	=31	=31	=31	=31	=31
2F/	1BB-	1rFF	2b-/]	[<1d-	.	4f/	-sze-	.
.	.	.	.	.	.	4f/	-go	.
(<4D-/	.	.	4f/	.	.	8r	.	.
.	.	.	.	.	.	8f/	duch	.
8E-/L	.	.	8g-/L	.	.	8g-/	stwo-	.
8En/J	.	.	8gn/J	.	.	8gn/	-rzeń	.
=32	=32	=32	=32	=32	=32	=32	=32	=32
!	!	!	!LO:TX:a:t=P:problem:brak zakończenia ligatury	!	!	!	!	!
2F/)	1AA-	1rFF	[>1a-	2d-\]	.	4.a-/	Twych	.
.	.	.	.	.	.	16r	.	.
.	.	.	.	.	.	16a-/	ku	.
2G-/	.	.	.	2e- 2c\	.	4cc\	To-	.
.	.	.	.	.	.	8b-\	-bie	.
.	.	.	.	.	.	8a-\	u-	.
!!LO:LB:g=original
=33	=33	=33	=33	=33	=33	=33	=33	=33
2F 2D-/	2ryy	1rFF	(>4a-/]	1d-	.	2dd-\	-le-	.
.	.	.	4dd-/)	.	.	.	.	.
2B-/	2G-\	.	2dd- [<2g-/	.	.	8dd-\	-ci,	.
.	.	.	.	.	.	8dd-\	przyj-	.
.	.	.	.	.	.	8cc\	-mij	.
.	.	.	.	.	.	8b-\	nas	.
=34	=34	=34	=34	=34	=34	=34	=34	=34
*2\left	*	*	*	*	*	*	*	*
[<2e- 2A- 2E-\	2ryy	1rFF	2cc 2g-/]	2c\	.	4cc\	oj-	.
.	.	.	.	.	.	8cc\	-cze	.
.	.	.	.	.	.	8cc\	do	.
*	*2\right	*	*	*	*	*	*	*
4e-/]	2A- 2F\	.	2a- 2f/	4c\	.	4ee-^>\	ło-	.
4d-/	.	.	.	4d-\	.	8.dd-\	-na	.
.	.	.	.	.	.	16an/	Two-	.
*	*v	*v	*	*	*	*	*	*
*	*	*v	*v	*	*	*	*
=35	=35	=35	=35	=35	=35	=35
[>2d- 2F 2D-\	1rFF	[>2b- 2a- 2f [<2B-/	.	4cc\	-je-	.
.	.	.	.	4b-\	-go,	.
2d-] [<2G- 2E-\	.	2b-] 2g- 2B-/]	.	8r	.	.
!	!	!	!	!	!	!LO:HP:a
.	.	.	.	8b-\	przyj-	<
.	.	.	.	8cc\	-mij	.
.	.	.	.	8dd-\	nas	[[
=36	=36	=36	=36	=36	=36	=36
*	*	*^	*	*	*	*
!	!	!	!	!	!	!	!LO:HP:a
2An 2G-_< 2C\	1rFF	(>2an/	[<1e-	.	4.ee-\	Oj-	>
.	.	.	.	.	8e-/	-cze	]
!LO:TX:a:t=P:problem:ligatura kończy się skierowana w górę	!	!	!	!	!	!	!
2B- 2G-_< 2BB-/	.	4..b-/	.	.	8e-/	do	.
.	.	.	.	.	8e-/	ło-	.
.	.	.	.	.	8.f/	-na	.
.	.	16g-/)	.	.	16g-/	Two-	.
!!LO:LB:g=original
=37	=37	=37	=37	=37	=37	=37	=37
*	*^	*	*	*	*	*	*
(>4G-]	2AAn\	1rFF	(>4g-/	2e-] 2c\	.	4g-/	-je-	.
2.F)	.	.	2f/)	.	.	8f/	-go	.
.	.	.	.	.	.	8r	.	.
.	2BB-\	.	.	[<2d-\	.	8r	.	.
.	.	.	.	.	.	8f/	tak	.
.	.	.	4f/	.	.	8.dd-\	ja-	.
.	.	.	.	.	.	16cc\	-ko	.
*	*v	*v	*	*	*	*	*	*
=38	=38	=38	=38	=38	=38	=38	=38
[>2F/	1rFF	(>2b- 2d-/]	2ryy	.	4.b-\	Oj-	.
.	.	.	.	.	8cc\	-ciec	.
2F_> 2FF/	.	(>4cc/	2e- 2c\	.	8.b-\	swe	.
.	.	.	.	.	16an\	przyj-	.
.	.	8f/L)	.	.	8f/	-mu-	.
.	.	8an/J)	.	.	8a/	-je	.
=39	=39	=39	=39	=39	=39	=39	=39
2F] 2BB-/	1rFF	2b-/	2d-\	.	4cc\	dzie-	.
.	.	.	.	.	4b-\	-ci,	.
[>2A- 2C/	.	2a-/	2g- 2e-\	.	8r	.	.
.	.	.	.	.	8a-\	przyjm	.
.	.	.	.	.	8.ff\	Oj-	.
.	.	.	.	.	16ee-\	-cze	.
=40	=40	=40	=40	=40	=40	=40	=40
!LO:TX:b:i:t=ped	!	!LO:TX:a:t=P:problem:kauda z lewej strony	!	!	!	!	!
2d- 2A-_> 2D-/	[<1D-	[>2dd-/	2f\	.	4.dd-\	nas	.
.	.	.	.	.	8ee-\	do	.
2e- 2A-_>/]	.	8dd-/L]	2g-\	.	8dd-\L	ło-	.
.	.	8cc/	.	.	8cc\J	.	.
!	!	!	!	!	!LO:TX:a:t=P:problem:nuta po korekcie. Wcześniej było 8a-	!	!
.	.	8b-/	.	.	8b-/	-na	.
.	.	8cc/J	.	.	8cc\	Two-	.
!!LO:LB:g=original
=41	=41	=41	=41	=41	=41	=41	=41
2rAyy	2d- 2A-] 2D-\]	2dd-/ 2f	2f\	.	2dd-\	-je-	.
2c-X [>2E-/	(<2E-\	(>4..cc-X/	[<2g-\	.	16cc-X\	-go	.
.	.	.	.	.	16r	.	.
.	.	.	.	.	8cc-\	tak	.
.	.	.	.	.	8.ee-\	ja-	.
.	.	16b-/	.	.	16b-/	-ko	.
=42	=42	=42	=42	=42	=42	=42	=42
4cn 4E-/]	4E-\	4an/	4g-\]	.	4an/	Oj-	.
[4d- 4En/	4En\	[>4b-/)	4gn\	.	8b-/	-ciec	.
.	.	.	.	.	8b-/	swe	.
!	!	!LO:TX:i:b:t=man&colon;	!	!	!	!	!
8d-/]	8F\)	8b-/]	8f\	.	(>2f/	dzie-	.
!LO:TX:t=P:problem:mixed beam	!	!	!	!	!	!	!
8F/L	8r	8rf	8rff	.	.	.	.
!	!	!LO:TX:i:a:t=man&colon;	!	!	!	!	!
!	!	!LO:TX:t=P:problem:nie wyświetla się łuk	!	!	!	!	!
8f>\	4FF\	N(>4an/	4rAyy	.	.	.	.
8e->\J	.	.	.	.	.	.	.
=43	=43	=43	=43	=43	=43	=43	=43
*	*^	*	*	*	*	*	*
(>4d->\	2F/	(<1BB-	2b-/)N	[>1f	.	4B-/)	-ci.	.
8c/L	.	.	.	.	.	4r	.	.
8B-/J	.	.	.	.	.	.	.	.
8B-/L	4C/	.	2f/	.	.	2r	.	.
8An/	.	.	.	.	.	.	.	.
8B-/	4E-\	.	.	.	.	.	.	.
8c/J)	.	.	.	.	.	.	.	.
*	*v	*v	*	*	*	*	*	*
=44	=44	=44	=44	=44	=44	=44	=44
2F/	2D-\ 2BB-	2f/_>	2ryy	.	1r	.	.
2C 2GG-X/	2GG-X\	(>8f/L]	2B--\	.	.	.	.
.	.	8e-/	.	.	.	.	.
.	.	8f/	.	.	.	.	.
.	.	8g-/J	.	.	.	.	.
=45	=45	=45	=45	=45	=45	=45	=45
(>2.D-/	4FF\	4a-/	4A-\	.	1r	.	.
.	4GG-\	8d-/L	4B-\	.	.	.	.
.	.	8e-/J	.	.	.	.	.
.	4DD-\	4f/	4A-\)	.	.	.	.
4C/	4FF\	4f/	4An\	.	.	.	.
*	*	*v	*v	*	*	*	*
=46	=46	=46	=46	=46	=46	=46
1D-)	1BB-)	1f;> 1B- 1F	.	1r;>	.	.
*v	*v	*	*	*	*	*
==	==	==	==	==	==
*-	*-	*-	*-	*-	*-
!!!system-decoration: {(s1)(s2,s3)}
!!!RDF**kern: > = above
!!!RDF**kern: < = below
!!!RDF**kern: N = linked
!!!EED: Antoni Szymański
!!!EST: 2021-04-17
!!!AIN: 1 alto 2 organ
!!!ENC: Marcin Jachim
!!!END: 2021-03-30
